packages/core/src/svgs/tokens/mono/GNY.svg

<svg width="24" height="24" viewBox="0 0 24 24" fill="none" xmlns="http://www.w3.org/2000/svg">
<path d="M8.98335 3.11108L11.4445 4.5333V18.8222L9.01668 20.8889L4.22223 17.7778V16.0388L2 14.55V8.61108L4.42778 7.53886L4.90556 5.23885L8.98335 3.11108ZM5.83889 5.92219L5.35001 8.26664L3.11112 9.27775V14L5.33334 15.4834V17.2167L8.94446 19.4944L10.3333 18.3444V5.12219L8.96112 4.28886L5.83889 5.91663V5.92219ZM15.0167 3.11108L12.5556 4.5333V18.8222L14.9834 20.8889L19.7778 17.7778V16.0388L22 14.55V8.61108L19.5723 7.53886L19.0945 5.23885L15.0167 3.11108ZM18.1611 5.92219L18.65 8.26664L20.8889 9.27775V14L18.6667 15.4834V17.2167L15.0722 19.5889L13.6666 18.35V5.12775L15.0389 4.29441L18.1611 5.92219Z" fill="white"/>
</svg>

<svg xmlns="http://www.w3.org/2000/svg" width="24" height="24" fill="none" viewBox="0 0 24 24">
    <path fill="#fff" d="m8.983 3.111 2.461 1.422v14.29l-2.427 2.066-4.795-3.111v-1.74L2 14.55V8.611L4.428 7.54l.478-2.3zM5.84 5.922l-.49 2.345-2.239 1.01V14l2.222 1.483v1.734l3.611 2.277 1.39-1.15V5.122L8.96 4.29 5.84 5.917zm9.178-2.81-2.461 1.421v14.29l2.427 2.066 4.795-3.111v-1.74L22 14.55V8.611L19.572 7.54l-.477-2.3zm3.144 2.81.489 2.345 2.239 1.01V14l-2.222 1.483v1.734l-3.595 2.372-1.405-1.239V5.128l1.372-.834z"/>
</svg>
